X:235
T:Micho Russell's Ashplant
Z: id:dc-reel-5
M:C
L:1/8
K:E Minor
BEE2 GFGA|BEE2 Bded|BEE2 dedB|ABAF DFAc:|!
B3A G3A|BGG2 Bdgd|B3A G3B|ADFD ADFA|!
B3A G3A|BGG2 Bdef|gbaf gfge|dedB A2GA|]!

